documentation/public/assets/images/tile12_dont.svg

<svg width="98" height="62" viewBox="0 0 98 62" fill="none" xmlns="http://www.w3.org/2000/svg">
<rect x="0.5" y="0.5" width="97" height="61" rx="3.5" fill="white"/>
<path d="M9.05682 35.5V26.7727H12.0057C12.6903 26.7727 13.25 26.8963 13.6847 27.1435C14.1222 27.3878 14.446 27.7188 14.6562 28.1364C14.8665 28.554 14.9716 29.0199 14.9716 29.5341C14.9716 30.0483 14.8665 30.5156 14.6562 30.9361C14.4489 31.3565 14.1278 31.6918 13.6932 31.9418C13.2585 32.1889 12.7017 32.3125 12.0227 32.3125H9.90909V31.375H11.9886C12.4574 31.375 12.8338 31.294 13.1179 31.1321C13.402 30.9702 13.608 30.7514 13.7358 30.4759C13.8665 30.1974 13.9318 29.8835 13.9318 29.5341C13.9318 29.1847 13.8665 28.8722 13.7358 28.5966C13.608 28.321 13.4006 28.1051 13.1136 27.9489C12.8267 27.7898 12.446 27.7102 11.9716 27.7102H10.1136V35.5H9.05682ZM18.4638 35.6534C18.049 35.6534 17.6726 35.5753 17.3345 35.419C16.9964 35.2599 16.728 35.0312 16.5291 34.733C16.3303 34.4318 16.2308 34.0682 16.2308 33.642C16.2308 33.267 16.3047 32.9631 16.4524 32.7301C16.6001 32.4943 16.7976 32.3097 17.0447 32.1761C17.2919 32.0426 17.5646 31.9432 17.8629 31.8778C18.1641 31.8097 18.4666 31.7557 18.7706 31.7159C19.1683 31.6648 19.4908 31.6264 19.7379 31.6009C19.9879 31.5724 20.1697 31.5256 20.2834 31.4602C20.3999 31.3949 20.4581 31.2812 20.4581 31.1193V31.0852C20.4581 30.6648 20.343 30.3381 20.1129 30.1051C19.8857 29.8722 19.5405 29.7557 19.0774 29.7557C18.5973 29.7557 18.2209 29.8608 17.9482 30.071C17.6754 30.2812 17.4837 30.5057 17.3729 30.7443L16.4183 30.4034C16.5888 30.0057 16.8161 29.696 17.1001 29.4744C17.3871 29.25 17.6996 29.0937 18.0376 29.0057C18.3786 28.9148 18.7138 28.8693 19.0433 28.8693C19.2536 28.8693 19.495 28.8949 19.7678 28.946C20.0433 28.9943 20.3089 29.0952 20.5646 29.2486C20.8232 29.402 21.0376 29.6335 21.2081 29.9432C21.3786 30.2528 21.4638 30.6676 21.4638 31.1875V35.5H20.4581V34.6136H20.407C20.3388 34.7557 20.2251 34.9077 20.0661 35.0696C19.907 35.2315 19.6953 35.3693 19.4311 35.483C19.1669 35.5966 18.8445 35.6534 18.4638 35.6534ZM18.6172 34.75C19.0149 34.75 19.3501 34.6719 19.6229 34.5156C19.8984 34.3594 20.1058 34.1577 20.245 33.9105C20.3871 33.6634 20.4581 33.4034 20.4581 33.1307V32.2102C20.4155 32.2614 20.3217 32.3082 20.1768 32.3509C20.0348 32.3906 19.87 32.4261 19.6825 32.4574C19.4979 32.4858 19.3175 32.5114 19.1413 32.5341C18.968 32.554 18.8274 32.571 18.7195 32.5852C18.4581 32.6193 18.2138 32.6747 17.9865 32.7514C17.7621 32.8253 17.5803 32.9375 17.4411 33.0881C17.3047 33.2358 17.2365 33.4375 17.2365 33.6932C17.2365 34.0426 17.3658 34.3068 17.6243 34.4858C17.8857 34.6619 18.2166 34.75 18.6172 34.75ZM24.305 26.7727V35.5H23.2994V26.7727H24.305ZM28.8913 35.6364C28.2607 35.6364 27.7166 35.4972 27.2592 35.2188C26.8047 34.9375 26.4538 34.5455 26.2067 34.0426C25.9624 33.5369 25.8402 32.9489 25.8402 32.2784C25.8402 31.608 25.9624 31.017 26.2067 30.5057C26.4538 29.9915 26.7976 29.5909 27.2379 29.304C27.6811 29.0142 28.1982 28.8693 28.7891 28.8693C29.13 28.8693 29.4666 28.9261 29.799 29.0398C30.1314 29.1534 30.4339 29.3381 30.7067 29.5938C30.9794 29.8466 31.1967 30.1818 31.3587 30.5994C31.5206 31.017 31.6016 31.5312 31.6016 32.142V32.5682H26.5561V31.6989H30.5788C30.5788 31.3295 30.505 31 30.3572 30.7102C30.2124 30.4205 30.005 30.1918 29.7351 30.0241C29.468 29.8565 29.1527 29.7727 28.7891 29.7727C28.3885 29.7727 28.0419 29.8722 27.7493 30.071C27.4595 30.267 27.2365 30.5227 27.0803 30.8381C26.924 31.1534 26.8459 31.4915 26.8459 31.8523V32.4318C26.8459 32.9261 26.9311 33.3452 27.1016 33.6889C27.2749 34.0298 27.5149 34.2898 27.8217 34.4688C28.1286 34.6449 28.4851 34.733 28.8913 34.733C29.1555 34.733 29.3942 34.696 29.6072 34.6222C29.8232 34.5455 30.0092 34.4318 30.1655 34.2812C30.3217 34.1278 30.4425 33.9375 30.5277 33.7102L31.4993 33.983C31.397 34.3125 31.2251 34.6023 30.9837 34.8523C30.7422 35.0994 30.4439 35.2926 30.0888 35.4318C29.7337 35.5682 29.3345 35.6364 28.8913 35.6364ZM39.353 28.9545V29.8068H35.9609V28.9545H39.353ZM36.9496 27.3864H37.9553V33.625C37.9553 33.9091 37.9964 34.1222 38.0788 34.2642C38.1641 34.4034 38.272 34.4972 38.4027 34.5455C38.5362 34.5909 38.6768 34.6136 38.8246 34.6136C38.9354 34.6136 39.0263 34.608 39.0973 34.5966C39.1683 34.5824 39.2251 34.571 39.2678 34.5625L39.4723 35.4659C39.4041 35.4915 39.3089 35.517 39.1868 35.5426C39.0646 35.571 38.9098 35.5852 38.7223 35.5852C38.4382 35.5852 38.1598 35.5241 37.8871 35.402C37.6172 35.2798 37.3928 35.0938 37.2138 34.8438C37.0376 34.5938 36.9496 34.2784 36.9496 33.8977V27.3864ZM43.5398 35.6364C42.9091 35.6364 42.3651 35.4972 41.9077 35.2188C41.4531 34.9375 41.1023 34.5455 40.8551 34.0426C40.6108 33.5369 40.4886 32.9489 40.4886 32.2784C40.4886 31.608 40.6108 31.017 40.8551 30.5057C41.1023 29.9915 41.446 29.5909 41.8864 29.304C42.3295 29.0142 42.8466 28.8693 43.4375 28.8693C43.7784 28.8693 44.1151 28.9261 44.4474 29.0398C44.7798 29.1534 45.0824 29.3381 45.3551 29.5938C45.6278 29.8466 45.8452 30.1818 46.0071 30.5994C46.169 31.017 46.25 31.5312 46.25 32.142V32.5682H41.2045V31.6989H45.2273C45.2273 31.3295 45.1534 31 45.0057 30.7102C44.8608 30.4205 44.6534 30.1918 44.3835 30.0241C44.1165 29.8565 43.8011 29.7727 43.4375 29.7727C43.0369 29.7727 42.6903 29.8722 42.3977 30.071C42.108 30.267 41.8849 30.5227 41.7287 30.8381C41.5724 31.1534 41.4943 31.4915 41.4943 31.8523V32.4318C41.4943 32.9261 41.5795 33.3452 41.75 33.6889C41.9233 34.0298 42.1634 34.2898 42.4702 34.4688C42.777 34.6449 43.1335 34.733 43.5398 34.733C43.804 34.733 44.0426 34.696 44.2557 34.6222C44.4716 34.5455 44.6577 34.4318 44.8139 34.2812C44.9702 34.1278 45.0909 33.9375 45.1761 33.7102L46.1477 33.983C46.0455 34.3125 45.8736 34.6023 45.6321 34.8523C45.3906 35.0994 45.0923 35.2926 44.7372 35.4318C44.3821 35.5682 43.983 35.6364 43.5398 35.6364ZM48.354 28.9545L49.9222 31.6307L51.4904 28.9545H52.6495L50.5359 32.2273L52.6495 35.5H51.4904L49.9222 32.9602L48.354 35.5H47.195L49.2745 32.2273L47.195 28.9545H48.354ZM56.9311 28.9545V29.8068H53.5391V28.9545H56.9311ZM54.5277 27.3864H55.5334V33.625C55.5334 33.9091 55.5746 34.1222 55.657 34.2642C55.7422 34.4034 55.8501 34.4972 55.9808 34.5455C56.1143 34.5909 56.255 34.6136 56.4027 34.6136C56.5135 34.6136 56.6044 34.608 56.6754 34.5966C56.7464 34.5824 56.8033 34.571 56.8459 34.5625L57.0504 35.4659C56.9822 35.4915 56.8871 35.517 56.7649 35.5426C56.6428 35.571 56.4879 35.5852 56.3004 35.5852C56.0163 35.5852 55.7379 35.5241 55.4652 35.402C55.1953 35.2798 54.9709 35.0938 54.7919 34.8438C54.6158 34.5938 54.5277 34.2784 54.5277 33.8977V27.3864ZM64.478 35.6364C63.8643 35.6364 63.3359 35.4915 62.8928 35.2017C62.4496 34.9119 62.1087 34.5128 61.87 34.0043C61.6314 33.4957 61.5121 32.9148 61.5121 32.2614C61.5121 31.5966 61.6342 31.0099 61.8786 30.5014C62.1257 29.9901 62.4695 29.5909 62.9098 29.304C63.353 29.0142 63.87 28.8693 64.4609 28.8693C64.9212 28.8693 65.3359 28.9545 65.7053 29.125C66.0746 29.2955 66.3771 29.5341 66.6129 29.8409C66.8487 30.1477 66.995 30.5057 67.0518 30.9148H66.0462C65.9695 30.6165 65.799 30.3523 65.5348 30.1222C65.2734 29.8892 64.9212 29.7727 64.478 29.7727C64.0859 29.7727 63.7422 29.875 63.4467 30.0795C63.1541 30.2812 62.9254 30.5668 62.7607 30.9361C62.5987 31.3026 62.5178 31.733 62.5178 32.2273C62.5178 32.733 62.5973 33.1733 62.7564 33.5483C62.9183 33.9233 63.1456 34.2145 63.4382 34.4219C63.7337 34.6293 64.0803 34.733 64.478 34.733C64.7393 34.733 64.9766 34.6875 65.1896 34.5966C65.4027 34.5057 65.5831 34.375 65.7308 34.2045C65.8786 34.0341 65.9837 33.8295 66.0462 33.5909H67.0518C66.995 33.9773 66.8544 34.3253 66.63 34.6349C66.4084 34.9418 66.1143 35.1861 65.7479 35.3679C65.3842 35.5469 64.9609 35.6364 64.478 35.6364ZM71.1811 35.6364C70.5902 35.6364 70.0717 35.4957 69.6257 35.2145C69.1825 34.9332 68.8359 34.5398 68.5859 34.0341C68.3388 33.5284 68.2152 32.9375 68.2152 32.2614C68.2152 31.5795 68.3388 30.9844 68.5859 30.4759C68.8359 29.9673 69.1825 29.5724 69.6257 29.2912C70.0717 29.0099 70.5902 28.8693 71.1811 28.8693C71.772 28.8693 72.2891 29.0099 72.7322 29.2912C73.1783 29.5724 73.5249 29.9673 73.772 30.4759C74.022 30.9844 74.147 31.5795 74.147 32.2614C74.147 32.9375 74.022 33.5284 73.772 34.0341C73.5249 34.5398 73.1783 34.9332 72.7322 35.2145C72.2891 35.4957 71.772 35.6364 71.1811 35.6364ZM71.1811 34.733C71.63 34.733 71.9993 34.6179 72.2891 34.3878C72.5788 34.1577 72.7933 33.8551 72.9325 33.4801C73.0717 33.1051 73.1413 32.6989 73.1413 32.2614C73.1413 31.8239 73.0717 31.4162 72.9325 31.0384C72.7933 30.6605 72.5788 30.3551 72.2891 30.1222C71.9993 29.8892 71.63 29.7727 71.1811 29.7727C70.7322 29.7727 70.3629 29.8892 70.0732 30.1222C69.7834 30.3551 69.5689 30.6605 69.4297 31.0384C69.2905 31.4162 69.2209 31.8239 69.2209 32.2614C69.2209 32.6989 69.2905 33.1051 69.4297 33.4801C69.5689 33.8551 69.7834 34.1577 70.0732 34.3878C70.3629 34.6179 70.7322 34.733 71.1811 34.733ZM76.6879 26.7727V35.5H75.6822V26.7727H76.6879ZM81.1889 35.6364C80.598 35.6364 80.0795 35.4957 79.6335 35.2145C79.1903 34.9332 78.8438 34.5398 78.5938 34.0341C78.3466 33.5284 78.223 32.9375 78.223 32.2614C78.223 31.5795 78.3466 30.9844 78.5938 30.4759C78.8438 29.9673 79.1903 29.5724 79.6335 29.2912C80.0795 29.0099 80.598 28.8693 81.1889 28.8693C81.7798 28.8693 82.2969 29.0099 82.7401 29.2912C83.1861 29.5724 83.5327 29.9673 83.7798 30.4759C84.0298 30.9844 84.1548 31.5795 84.1548 32.2614C84.1548 32.9375 84.0298 33.5284 83.7798 34.0341C83.5327 34.5398 83.1861 34.9332 82.7401 35.2145C82.2969 35.4957 81.7798 35.6364 81.1889 35.6364ZM81.1889 34.733C81.6378 34.733 82.0071 34.6179 82.2969 34.3878C82.5866 34.1577 82.8011 33.8551 82.9403 33.4801C83.0795 33.1051 83.1491 32.6989 83.1491 32.2614C83.1491 31.8239 83.0795 31.4162 82.9403 31.0384C82.8011 30.6605 82.5866 30.3551 82.2969 30.1222C82.0071 29.8892 81.6378 29.7727 81.1889 29.7727C80.7401 29.7727 80.3707 29.8892 80.081 30.1222C79.7912 30.3551 79.5767 30.6605 79.4375 31.0384C79.2983 31.4162 79.2287 31.8239 79.2287 32.2614C79.2287 32.6989 79.2983 33.1051 79.4375 33.4801C79.5767 33.8551 79.7912 34.1577 80.081 34.3878C80.3707 34.6179 80.7401 34.733 81.1889 34.733ZM85.69 35.5V28.9545H86.6616V29.9432H86.7298C86.8491 29.6193 87.065 29.3565 87.3775 29.1548C87.69 28.9531 88.0423 28.8523 88.4343 28.8523C88.5082 28.8523 88.6005 28.8537 88.7113 28.8565C88.8221 28.8594 88.9059 28.8636 88.9627 28.8693V29.892C88.9286 29.8835 88.8505 29.8707 88.7283 29.8537C88.609 29.8338 88.4826 29.8239 88.3491 29.8239C88.0309 29.8239 87.7468 29.8906 87.4968 30.0241C87.2496 30.1548 87.0536 30.3366 86.9087 30.5696C86.7667 30.7997 86.6957 31.0625 86.6957 31.358V35.5H85.69Z" fill="#B5B5B5"/>
<rect x="0.5" y="0.5" width="97" height="61" rx="3.5" stroke="#EBEBEB"/>
</svg>

<svg width="98" height="62" fill="none" xmlns="http://www.w3.org/2000/svg"><rect x=".5" y=".5" width="97" height="61" rx="3.5" fill="#fff"/><path d="M9.06 35.5v-8.73H12c.68 0 1.24.13 1.67.37.44.25.77.58.98 1 .2.41.31.88.31 1.4 0 .5-.1.98-.31 1.4-.21.42-.53.75-.97 1a3.3 3.3 0 0 1-1.67.37h-2.1v-.94h2.08c.47 0 .84-.08 1.13-.24.28-.16.49-.38.62-.65.13-.28.2-.6.2-.95s-.07-.66-.2-.93a1.4 1.4 0 0 0-.63-.65 2.35 2.35 0 0 0-1.14-.24h-1.86v7.79H9.06Zm9.4.15c-.41 0-.79-.07-1.13-.23-.33-.16-.6-.39-.8-.69-.2-.3-.3-.66-.3-1.09 0-.37.07-.68.22-.91.15-.24.35-.42.6-.55.24-.14.51-.24.81-.3a14.76 14.76 0 0 1 1.88-.28c.25-.03.43-.07.54-.14.12-.07.18-.18.18-.34v-.03c0-.43-.12-.75-.35-.98-.22-.24-.57-.35-1.03-.35-.48 0-.86.1-1.13.31-.27.21-.47.44-.58.67l-.95-.34a2.3 2.3 0 0 1 1.62-1.4 3.9 3.9 0 0 1 1.73-.05c.27.04.54.15.8.3.25.15.47.38.64.7.17.3.25.72.25 1.24v4.31h-1v-.89h-.05a1.91 1.91 0 0 1-.98.87c-.26.12-.59.17-.97.17Zm.16-.9a2 2 0 0 0 1-.23 1.6 1.6 0 0 0 .84-1.39v-.92c-.04.05-.14.1-.28.14a4.77 4.77 0 0 1-1.04.18l-.42.06c-.26.03-.5.08-.73.16-.23.08-.41.19-.55.34a.86.86 0 0 0-.2.6c0 .35.13.62.38.8.27.17.6.26 1 .26Zm5.68-7.98v8.73h-1v-8.73h1Zm4.6 8.87a2.8 2.8 0 0 1-2.68-1.6 3.8 3.8 0 0 1-.38-1.76c0-.67.12-1.26.37-1.77a2.77 2.77 0 0 1 2.58-1.64c.34 0 .68.06 1 .17a2.5 2.5 0 0 1 1.57 1.56c.16.42.24.93.24 1.54v.43h-5.04v-.87h4.02c0-.37-.07-.7-.22-.99a1.67 1.67 0 0 0-1.57-.94c-.4 0-.75.1-1.04.3-.3.2-.51.45-.67.77-.16.31-.23.65-.23 1.01v.58c0 .5.08.92.25 1.26.17.34.41.6.72.78.3.17.67.26 1.07.26.27 0 .5-.03.72-.1.21-.08.4-.2.56-.35.15-.15.27-.34.36-.57l.97.27c-.1.33-.27.62-.52.87-.24.25-.54.44-.9.58-.35.14-.75.2-1.19.2Zm10.45-6.69v.86h-3.39v-.86h3.4Zm-2.4-1.56h1v6.23c0 .29.05.5.13.64s.2.24.32.29a1.78 1.78 0 0 0 .7.05l.17-.04.2.9a2.05 2.05 0 0 1-.75.13c-.28 0-.56-.07-.83-.19a1.6 1.6 0 0 1-.68-.56 1.6 1.6 0 0 1-.26-.94v-6.51Zm6.59 8.25a2.8 2.8 0 0 1-2.68-1.6c-.25-.5-.37-1.1-.37-1.76 0-.67.12-1.26.37-1.77a2.77 2.77 0 0 1 2.58-1.64c.34 0 .68.06 1 .17a2.5 2.5 0 0 1 1.57 1.56c.16.42.24.93.24 1.54v.43H41.2v-.87h4.03c0-.37-.08-.7-.22-.99a1.67 1.67 0 0 0-1.57-.94 1.85 1.85 0 0 0-1.71 1.07c-.16.31-.24.65-.24 1.01v.58c0 .5.09.92.26 1.26.17.34.41.6.72.78.3.17.66.26 1.07.26.26 0 .5-.03.72-.1a1.55 1.55 0 0 0 .92-.91l.97.26c-.1.33-.28.62-.52.87s-.54.44-.9.58c-.35.14-.75.2-1.19.2Zm4.81-6.69 1.57 2.68 1.57-2.68h1.16l-2.11 3.28 2.11 3.27h-1.16l-1.57-2.54-1.57 2.54H47.2l2.08-3.27-2.08-3.28h1.16Zm8.58 0v.86h-3.4v-.86h3.4Zm-2.4-1.56h1v6.23c0 .29.04.5.13.64.08.14.19.24.32.29a1.78 1.78 0 0 0 .7.05l.17-.04.2.9a2.05 2.05 0 0 1-.75.13c-.28 0-.56-.07-.83-.19a1.6 1.6 0 0 1-.68-.56 1.6 1.6 0 0 1-.26-.94v-6.51Zm9.95 8.25c-.62 0-1.14-.15-1.59-.44a2.83 2.83 0 0 1-1.02-1.2 4.06 4.06 0 0 1-.36-1.74c0-.66.12-1.25.37-1.76s.59-.9 1.03-1.2c.44-.29.96-.43 1.55-.43.46 0 .88.08 1.25.25.36.18.67.41.9.72.24.3.39.67.44 1.07h-1c-.08-.3-.25-.56-.52-.79a1.53 1.53 0 0 0-1.05-.35c-.4 0-.74.1-1.03.3a2 2 0 0 0-.69.87c-.16.36-.24.8-.24 1.29 0 .5.08.94.24 1.32.16.37.39.66.68.87.3.2.64.31 1.04.31.26 0 .5-.04.71-.13a1.47 1.47 0 0 0 .86-1h1a2.33 2.33 0 0 1-1.3 1.77c-.37.18-.79.27-1.27.27Zm6.7 0c-.59 0-1.1-.14-1.55-.43a2.87 2.87 0 0 1-1.04-1.18 4 4 0 0 1-.37-1.77c0-.68.12-1.28.37-1.78.25-.51.6-.9 1.04-1.19.44-.28.96-.42 1.55-.42a2.75 2.75 0 0 1 2.59 1.61 4 4 0 0 1 .38 1.78c0 .68-.13 1.27-.38 1.77a2.76 2.76 0 0 1-2.59 1.61Zm0-.9c.45 0 .82-.12 1.1-.35.3-.23.51-.53.65-.91a3.72 3.72 0 0 0 .01-2.44 2.06 2.06 0 0 0-.65-.92 1.71 1.71 0 0 0-1.1-.35c-.46 0-.83.12-1.12.35-.29.24-.5.54-.64.92s-.2.78-.2 1.22c0 .44.06.85.2 1.22.14.38.35.68.64.9.3.24.66.35 1.11.35Zm5.5-7.97v8.73h-1v-8.73h1Zm4.5 8.87a2.8 2.8 0 0 1-1.55-.43 2.87 2.87 0 0 1-1.04-1.18 4 4 0 0 1-.37-1.77c0-.68.13-1.28.37-1.78.25-.51.6-.9 1.04-1.19a2.9 2.9 0 0 1 1.56-.42 2.75 2.75 0 0 1 2.59 1.61 4 4 0 0 1 .37 1.78c0 .68-.12 1.27-.37 1.77a2.76 2.76 0 0 1-2.59 1.61Zm0-.9c.46 0 .83-.12 1.12-.35.29-.23.5-.53.64-.91.14-.37.2-.78.2-1.22 0-.44-.06-.84-.2-1.22a2.06 2.06 0 0 0-.64-.92 1.71 1.71 0 0 0-1.11-.35c-.45 0-.82.12-1.1.35-.3.24-.51.54-.65.92s-.21.78-.21 1.22c0 .44.07.85.2 1.22.15.38.36.68.65.9.3.24.66.35 1.1.35Zm4.51.76v-6.55h.97v1h.07c.12-.33.33-.6.65-.8.31-.2.66-.3 1.05-.3a11.3 11.3 0 0 1 .53.02v1.02a2.98 2.98 0 0 0-.61-.07c-.32 0-.6.07-.85.2s-.45.32-.6.55c-.13.23-.2.5-.2.79v4.14h-1.01Z" fill="#B5B5B5"/><rect x=".5" y=".5" width="97" height="61" rx="3.5" stroke="#EBEBEB"/></svg>
